X:1
T:Title
%%score ( 1 2 ) 3
L:1/8
Q:1/4=106
M:4/4
K:Ab
V:1 treble nm="Grand Piano, Soprano"
V:2 treble 
V:3 bass nm="Choir Pad, God Shall Wipe All Tears"
V:1
 [A,C][B,D] [CE]2 [CF]2 [CG]2 | [CA]2 A4 G2 | z2 F6 | FA z2 CC C2 | [A,C][B,D] [CE]2 [CF]2 [CG]2 | %5
w: By~Alexander~B.~Morton * * * *|||||
 [CA]2 A4 G2 | z2 B6 | z2 A6 | [CA][DB] [Ec]2 [Ec]2 [CA]2 | [=DA]2 [EG]6 | %10
w: |||||
 [EG][EA] [EB]2 [EB]2 [EG]2 | [DG]2 [CA]6 | [CA][DB] [Ec]2 [Ec]2 [_Ge]2 | [_Ge]2 [Fd]6 | z2 B6 | %15
w: |||||
 z2 A6 | z8 |] %17
w: ||
V:2
 x8 | z2 D6 | GB z2 DD D2 | z2 E6 | x8 | z2 D6 | GE z2 DD D2 | Bc z2 CD C2 | x8 | x8 | x8 | x8 | %12
 x8 | x8 | cE z2 DD D2 | BE z2 CD C2- | C6 z2 |] %17
V:3
 [A,,E,][A,,E,] [A,,A,]2 [A,,A,]2 [A,,E,]2 | [A,,E,]2 [B,,F,]6 | z4 [E,G,][E,G,] [E,G,]2 | %3
 z4 [A,,A,][A,,A,] [A,,A,]2 | [A,,E,][A,,E,] [A,,A,]2 [A,,A,]2 [A,,E,]2 | [A,,E,]2 [B,,E,]6 | %6
 z4 [E,G,][E,G,] [E,G,]2 | z4 [A,,E,][A,,F,] [A,,E,]2 | [A,,E,][A,,E,] [A,,A,]2 [A,,A,]2 [F,A,]2 | %9
 [F,B,]2 [E,B,]6 | [E,B,][E,C] [E,D]2 [E,D]2 [E,B,]2 | [E,B,]2 [A,,A,]6 | %12
 [A,,A,][A,,A,] [A,,A,]2 [A,,A,]2 [C,A,]2 | [C,A,]2 [D,A,]6 | z4 [E,G,][E,G,] [E,G,]2 | %15
 z4 [A,,E,][A,,F,] [A,,E,]2- | [A,,E,]6 z2 |] %17

